Setup/v9/Assets/Themes/Kobe - Light/Exit.svg

<svg width="20" height="20" viewBox="0 0 20 20" fill="none" xmlns="http://www.w3.org/2000/svg">
<path fill-rule="evenodd" clip-rule="evenodd" d="M18.4119 2.35355C18.6072 2.15829 18.6072 1.84171 18.4119 1.64645C18.2167 1.45118 17.9001 1.45118 17.7048 1.64645L10.0292 9.32209L2.35355 1.64645C2.15829 1.45118 1.84171 1.45118 1.64645 1.64645C1.45118 1.84171 1.45118 2.15829 1.64645 2.35355L9.32209 10.0292L1.64657 17.7047C1.4513 17.9 1.4513 18.2166 1.64657 18.4118C1.84183 18.6071 2.15841 18.6071 2.35367 18.4118L10.0292 10.7363L17.7047 18.4118C17.9 18.6071 18.2166 18.6071 18.4118 18.4118C18.6071 18.2166 18.6071 17.9 18.4118 17.7047L10.7363 10.0292L18.4119 2.35355Z" fill="black"/>
</svg>

<svg xmlns="http://www.w3.org/2000/svg" width="20" height="20" fill="none"><path fill="#000" fill-rule="evenodd" d="M18.412 2.354a.5.5 0 1 0-.707-.708l-7.676 7.676-7.675-7.676a.5.5 0 1 0-.708.708l7.676 7.675-7.675 7.676a.5.5 0 1 0 .707.707l7.675-7.676 7.676 7.676a.5.5 0 1 0 .707-.707l-7.676-7.676 7.676-7.675Z" clip-rule="evenodd"/></svg>
